X: 1
T: Krivo Horo
R: kopanica
Z: John Chambers <jc@eddie.mit.edu> http://eddie.mit.edu/~jc/music/
M: 11/16
L: 1/16
K: C
P: A
|: "C"C2^DE E2C E2EC | E2G2 G2E G2GE | GAGE "G"G2F FEFD | FGFD "C"F2E E^DEC :|
P: B
|: "F"A2AF ABc A2A2 | "G"Bcd2 dcB BAAG | "C"G2G2 GAB G2G2 |1 "G"BAAG G2F "C"EFGC :|2 "G"BAAG G2F "C"ECE2 ||
P: C
|: "G"BAAG G2F "C"EFG2 | "G"BAAG G2F "C"EFGC |"G"BAAG G2F "C"EFGC | "G"BAAG G2F "C"E2E2 :|
P: D
|: "Dm"D2D2 EFD ECCA, | C2DA, FED ECDA, | D2D2 EFD ECCA, | C2DA, FED ECD2 :|
P: E
|: "C"_BAG^F E^DE FGGC | _BAG^F E^DE FGGC | _BAG^F E^DE FGGC | _BAG^F E^DE C2z2 |
P: F
|: "C"_BAG2 _BAG _BAG2 | _BAG2 _BAG _BAG2 | _BAG^F E^DE FGGC |
| _BAG^F E^DE FGGC | _BAG^F E^DE FGGC | _BAG^F E^DE C2z2 :|
P: G
|: "D"GA^F2 _EDC D2DA, | GA^F2 _EDC D2DA, | GA^F2 G2F GAF2 | GA^F2 _EDC D2DA, :|
P: H
K: D
|: "D"D2^EF F2D F2FD | F2A2 A2F A2AF | ABAF "A7"A2G GFGE | GAGE "D"G2F F^EFD :|
P: I
|: "G"B2B2 Bcd B2B2 | "A"cde2 edc cBBA | "D"A2A2 ABc A2A2 |1 "A"cBBA "D"A2G FGA2 :|2 "A"cBBA "D"A2G F2z2 ||
P: J 4x
|: "A"cBBA A2G "D"FGAD | "A"cBBA A2G "D"FDF2 :|
